img/applications/icon.svg

<svg width="32" height="32" viewBox="0 0 32 32" fill="none" xmlns="http://www.w3.org/2000/svg">
<rect width="32" height="32" rx="8" fill="#0066FF"/>
<path d="M23.2442 20.4422C23.5421 19.3309 23.5804 18.166 23.356 17.0376C23.1317 15.9092 22.6508 14.8475 21.9505 13.9347C21.2502 13.0219 20.3492 12.2825 19.3174 11.7736C18.2856 11.2647 17.1505 11 16 11C14.8495 11 13.7144 11.2647 12.6826 11.7736C11.6508 12.2825 10.7498 13.0219 10.0495 13.9347C9.34921 14.8475 8.86828 15.9092 8.64395 17.0376C8.41962 18.166 8.4579 19.3309 8.75583 20.4422" stroke="white" stroke-width="1.6" stroke-linecap="round"/>
<path d="M16.6384 18.9846C17.0442 19.5762 16.7584 20.4779 16.0001 20.9987C15.2417 21.5204 14.2976 21.4637 13.8917 20.8729C13.4584 20.2429 11.9634 16.7004 11.0559 14.5087C10.8851 14.0962 11.3892 13.7496 11.7142 14.0571C13.4342 15.6904 16.2059 18.3546 16.6384 18.9846Z" stroke="white" stroke-width="1.5" stroke-linecap="round"/>
<path d="M16 11V12.6667M10.6967 13.1967L11.875 14.375M21.3034 13.1967L20.125 14.375M23.2442 20.4417L21.635 20.01M8.75586 20.4417L10.365 20.01" stroke="white" stroke-width="1.5" stroke-linecap="round"/>
</svg>

<svg width="32" height="32" fill="none" xmlns="http://www.w3.org/2000/svg"><rect width="32" height="32" rx="8" fill="#06F"/><path d="M23.244 20.442a7.5 7.5 0 1 0-14.488 0" stroke="#fff" stroke-width="1.6" stroke-linecap="round"/><path d="M16.638 18.985c.406.591.12 1.493-.638 2.014-.758.521-1.702.465-2.108-.126-.434-.63-1.929-4.173-2.836-6.364-.17-.413.333-.76.658-.452 1.72 1.633 4.492 4.298 4.924 4.928ZM16 11v1.667m-5.303.53 1.178 1.178m9.428-1.178-1.178 1.178m3.12 6.067-1.61-.432m-12.88.432 1.61-.432" stroke="#fff" stroke-width="1.5" stroke-linecap="round"/></svg>
